packages/kaspersky-hexa-ui-icons/src/iconsSVGs/16/Flush1.svg

<svg width="16" height="16" viewBox="0 0 16 16" fill="none" xmlns="http://www.w3.org/2000/svg">
<path d="M8.0001 0.68335C8.35908 0.68335 8.6501 0.974365 8.6501 1.33335V4.66668C8.6501 5.02567 8.35908 5.31668 8.0001 5.31668C7.64111 5.31668 7.3501 5.02567 7.3501 4.66668V1.33335C7.3501 0.974365 7.64111 0.68335 8.0001 0.68335Z" fill="black"/>
<path fill-rule="evenodd" clip-rule="evenodd" d="M2.01685 8.16685C2.01685 6.97944 2.97943 6.01685 4.16685 6.01685H11.8336C13.021 6.01685 13.9836 6.97943 13.9836 8.16685V12.8517C13.9836 14.0392 13.021 15.0017 11.8336 15.0017H4.16685C2.97943 15.0017 2.01685 14.0392 2.01685 12.8517V8.16685ZM3.88448 7.36487L7.1489 10.0172C7.6449 10.4202 8.35551 10.4202 8.8515 10.0172L12.1159 7.36486C12.0276 7.33376 11.9326 7.31685 11.8336 7.31685H4.16685C4.06786 7.31685 3.97283 7.33377 3.88448 7.36487ZM12.6836 8.57866L9.67127 11.0262C8.69766 11.8172 7.30275 11.8172 6.32913 11.0262L3.31685 8.57868V12.8517C3.31685 13.3212 3.6974 13.7017 4.16685 13.7017H11.8336C12.303 13.7017 12.6836 13.3212 12.6836 12.8517V8.57866Z" fill="black"/>
<path d="M11.3168 2.66685C11.3168 2.30786 11.0258 2.01685 10.6668 2.01685C10.3079 2.01685 10.0168 2.30786 10.0168 2.66685V4.66685C10.0168 5.02583 10.3079 5.31685 10.6668 5.31685C11.0258 5.31685 11.3168 5.02583 11.3168 4.66685V2.66685Z" fill="black"/>
<path d="M5.33335 2.01685C5.69233 2.01685 5.98335 2.30786 5.98335 2.66685V4.66685C5.98335 5.02583 5.69233 5.31685 5.33335 5.31685C4.97436 5.31685 4.68335 5.02583 4.68335 4.66685V2.66685C4.68335 2.30786 4.97436 2.01685 5.33335 2.01685Z" fill="black"/>
</svg>

<svg xmlns="http://www.w3.org/2000/svg" width="16" height="16" fill="none" viewBox="0 0 16 16"><path fill="#000" d="M8.0001.6834a.65.65 0 0 1 .65.65v3.3333a.65.65 0 0 1-1.3 0V1.3334a.65.65 0 0 1 .65-.65"/><path fill="#000" fill-rule="evenodd" d="M2.0168 8.1669c0-1.1875.9626-2.15 2.15-2.15h7.6668c1.1874 0 2.15.9625 2.15 2.15v4.6848c0 1.1875-.9626 2.15-2.15 2.15H4.1669c-1.1875 0-2.15-.9625-2.15-2.15zm1.8677-.802 3.2644 2.6523a1.35 1.35 0 0 0 1.7026 0l3.2644-2.6523a.85.85 0 0 0-.2823-.048H4.1669a.85.85 0 0 0-.2824.048m8.7991 1.2138-3.0123 2.4475c-.9736.791-2.3686.791-3.3422 0L3.3168 8.5787v4.273a.85.85 0 0 0 .85.85h7.6668a.85.85 0 0 0 .85-.85z" clip-rule="evenodd"/><path fill="#000" d="M11.317 2.667a.65.65 0 1 0-1.3 0v2a.65.65 0 0 0 1.3 0zm-5.984-.65a.65.65 0 0 1 .65.65v2a.65.65 0 0 1-1.3 0v-2a.65.65 0 0 1 .65-.65"/></svg>
